public/gridMode.svg

<svg fill="none" height="36" viewBox="0 0 44 36" width="44" xmlns="http://www.w3.org/2000/svg"><g stroke="#265db6" stroke-width="2.5"><path d="m3 1.25h15c.9665 0 1.75.7835 1.75 1.75v11c0 .9665-.7835 1.75-1.75 1.75h-15c-.9665 0-1.75-.7835-1.75-1.75v-11c0-.9665.7835-1.75 1.75-1.75z"/><path d="m26 20.25h15c.9665 0 1.75.7835 1.75 1.75v11c0 .9665-.7835 1.75-1.75 1.75h-15c-.9665 0-1.75-.7835-1.75-1.75v-11c0-.9665.7835-1.75 1.75-1.75z"/><path d="m3 20.25h15c.9665 0 1.75.7835 1.75 1.75v11c0 .9665-.7835 1.75-1.75 1.75h-15c-.9665 0-1.75-.7835-1.75-1.75v-11c0-.9665.7835-1.75 1.75-1.75z"/><path d="m26 1.25h15c.9665 0 1.75.7835 1.75 1.75v11c0 .9665-.7835 1.75-1.75 1.75h-15c-.9665 0-1.75-.7835-1.75-1.75v-11c0-.9665.7835-1.75 1.75-1.75z"/></g></svg>

<svg width="44" height="36" viewBox="0 0 44 36" fill="none" xmlns="http://www.w3.org/2000/svg">
<path d="M3 1.25H18C18.9665 1.25 19.75 2.0335 19.75 3V14C19.75 14.9665 18.9665 15.75 18 15.75H3C2.0335 15.75 1.25 14.9665 1.25 14V3C1.25 2.0335 2.0335 1.25 3 1.25Z" stroke="#265DB6" stroke-width="2.5"/>
<path d="M26 20.25H41C41.9665 20.25 42.75 21.0335 42.75 22V33C42.75 33.9665 41.9665 34.75 41 34.75H26C25.0335 34.75 24.25 33.9665 24.25 33V22C24.25 21.0335 25.0335 20.25 26 20.25Z" stroke="#265DB6" stroke-width="2.5"/>
<path d="M3 20.25H18C18.9665 20.25 19.75 21.0335 19.75 22V33C19.75 33.9665 18.9665 34.75 18 34.75H3C2.0335 34.75 1.25 33.9665 1.25 33V22C1.25 21.0335 2.0335 20.25 3 20.25Z" stroke="#265DB6" stroke-width="2.5"/>
<path d="M26 1.25H41C41.9665 1.25 42.75 2.0335 42.75 3V14C42.75 14.9665 41.9665 15.75 41 15.75H26C25.0335 15.75 24.25 14.9665 24.25 14V3C24.25 2.0335 25.0335 1.25 26 1.25Z" stroke="#265DB6" stroke-width="2.5"/>
</svg>
